X:1
T:The Wife of Usher's Well
M:3/4
L:1/4
K:Eb
 c| B GF/4-G/4 B/2| c c B/2 c/4e/4| B GF/4-G/4 B/2| c z e| B/2G/2 F E|\
 E C B,/2B/4-c/4| B G F3/4 E/4| E2||

